icons/user-share.svg

<svg width="24" height="24" viewBox="0 0 24 24" fill="none" xmlns="http://www.w3.org/2000/svg">
<path fill-rule="evenodd" clip-rule="evenodd" d="M12 3C9.79086 3 8 4.79086 8 7C8 9.20914 9.79086 11 12 11C14.2091 11 16 9.20914 16 7C16 4.79086 14.2091 3 12 3ZM6 7C6 3.68629 8.68629 1 12 1C15.3137 1 18 3.68629 18 7C18 10.3137 15.3137 13 12 13C8.68629 13 6 10.3137 6 7ZM12 16C8.68629 16 6 18.6863 6 22C6 22.5523 5.55228 23 5 23C4.44772 23 4 22.5523 4 22C4 17.5817 7.58172 14 12 14C12.5523 14 13 14.4477 13 15C13 15.5523 12.5523 16 12 16ZM18.7071 14.2929L21.7071 17.2929C22.0976 17.6834 22.0976 18.3166 21.7071 18.7071L18.7071 21.7071C18.3166 22.0976 17.6834 22.0976 17.2929 21.7071C16.9024 21.3166 16.9024 20.6834 17.2929 20.2929L18.5858 19H16C15.4477 19 15 18.5523 15 18C15 17.4477 15.4477 17 16 17H18.5858L17.2929 15.7071C16.9024 15.3166 16.9024 14.6834 17.2929 14.2929C17.6834 13.9024 18.3166 13.9024 18.7071 14.2929Z" fill="black"/>
</svg>

<svg
  width="24"
  height="24"
  viewBox="0 0 24 24"
  xmlns="http://www.w3.org/2000/svg"
>
  <path
    fill-rule="evenodd"
    clip-rule="evenodd"
    d="M12 3a4 4 0 1 0 0 8 4 4 0 0 0 0-8zM6 7a6 6 0 1 1 12 0A6 6 0 0 1 6 7zm6 9a6 6 0 0 0-6 6 1 1 0 1 1-2 0 8 8 0 0 1 8-8 1 1 0 1 1 0 2zm6.707-1.707l3 3a1 1 0 0 1 0 1.414l-3 3a1 1 0 0 1-1.414-1.414L18.586 19H16a1 1 0 1 1 0-2h2.586l-1.293-1.293a1 1 0 0 1 1.414-1.414z"
  />
</svg>
